app/dist/common/images/provident-bancorp.svg

<svg height="18" viewBox="0 0 18 18" width="18" xmlns="http://www.w3.org/2000/svg"><path d="m0 0h18v18h-18z" fill="#181b1e"/><g fill="#fff"><path d="m6 3h-1v6h1v-.27a2 2 0 1 0 0-3.46zm0 4a1 1 0 1 0 2 0 1 1 0 0 0 -2 0z" fill-rule="evenodd"/><path d="m6 15h-1v-6h1v.27a2 2 0 1 1 0 3.46zm0-4a1 1 0 1 1 2 0 1 1 0 0 1 -2 0z" fill-rule="evenodd"/><path d="m10 3h1v2.9l.82-.9h1.18l-1.82 2 1.82 2h-1.18l-.82-.9v.9h-1zm-1 6h1l1 2.5 1-2.5h1l-1.64 4h-.74z"/></g><circle cx="13.5" cy="12.5" fill="#ce2c83" r=".5"/></svg>

<!-- by TradingView --><svg width="18" height="18" viewBox="0 0 18 18" xmlns="http://www.w3.org/2000/svg"><path fill="#181B1E" d="M0 0h18v18H0z"/><path fill-rule="evenodd" d="M6 3H5v6h1v-.27a2 2 0 1 0 0-3.46V3Zm0 4a1 1 0 1 0 2 0 1 1 0 0 0-2 0Z" fill="#fff"/><path fill-rule="evenodd" d="M6 15H5V9h1v.27a2 2 0 1 1 0 3.46V15Zm0-4a1 1 0 1 1 2 0 1 1 0 0 1-2 0Z" fill="#fff"/><path d="M10 3h1v2.9l.82-.9H13l-1.82 2L13 9h-1.18L11 8.1V9h-1V3ZM9 9h1l1 2.5L12 9h1l-1.64 4h-.74L9 9Z" fill="#fff"/><circle cx="13.5" cy="12.5" r=".5" fill="#CE2C83"/></svg>
